Cyan-Breeze-Icons/Cyan-Breeze-Dark-Icons/actions/32/tab_remove.svg

<?xml version="1.0" encoding="UTF-8" standalone="no"?>
<svg
   xmlns:dc="http://purl.org/dc/elements/1.1/"
   xmlns:cc="http://creativecommons.org/ns#"
   xmlns:rdf="http://www.w3.org/1999/02/22-rdf-syntax-ns#"
   xmlns:svg="http://www.w3.org/2000/svg"
   xmlns="http://www.w3.org/2000/svg"
   xmlns:sodipodi="http://sodipodi.sourceforge.net/DTD/sodipodi-0.dtd"
   xmlns:inkscape="http://www.inkscape.org/namespaces/inkscape"
   viewBox="0 0 16 16"
   version="1.1"
   id="svg6"
   sodipodi:docname="tab_remove.svg"
   inkscape:version="1.0.2 (e86c870879, 2021-01-15)">
  <metadata
     id="metadata10">
    <rdf:RDF>
      <cc:Work
         rdf:about="">
        <dc:format>image/svg+xml</dc:format>
        <dc:type
           rdf:resource="http://purl.org/dc/dcmitype/StillImage" />
        <dc:title></dc:title>
      </cc:Work>
    </rdf:RDF>
  </metadata>
  <sodipodi:namedview
     pagecolor="#ffffff"
     bordercolor="#666666"
     borderopacity="1"
     objecttolerance="10"
     gridtolerance="10"
     guidetolerance="10"
     inkscape:pageopacity="0"
     inkscape:pageshadow="2"
     inkscape:window-width="1920"
     inkscape:window-height="1007"
     id="namedview8"
     showgrid="false"
     inkscape:zoom="39.25"
     inkscape:cx="3.8853503"
     inkscape:cy="8"
     inkscape:window-x="0"
     inkscape:window-y="0"
     inkscape:window-maximized="1"
     inkscape:current-layer="svg6" />
  <defs
     id="defs3051">
    <style
       type="text/css"
       id="current-color-scheme">
      .ColorScheme-Text {
        color:#eff0f1;
      }
      .ColorScheme-NegativeText {
        color:#da4453;
      }
      </style>
  </defs>
  <path
     style="color:#dfdfdf;fill:currentColor"
     class="ColorScheme-Text"
     d="M 4.0000001,2 C 4.0000001,2 2,2 2,4 v 7 c 0,1 -1,1 -1,1 H 0 v 2 h 16 v -2 h -1 c 0,0 -1,0 -1,-1 V 4 c 0,0 0,-2 -2,-2 z m 1,3 h 1.4141 L 8.0000002,6.5859 9.5859002,5 H 11 V 6.4141 L 9.4141002,8 11,9.5859001 V 11 H 9.5859002 L 8.0000002,9.4141001 6.4141001,11 h -1.4141 V 9.5859001 L 6.5859001,8 5.0000001,6.4141 Z"
     id="path5" />
</svg>

<svg xmlns="http://www.w3.org/2000/svg" width="24" height="24" version="1.1">
 <defs>
  <style id="current-color-scheme" type="text/css">
   .ColorScheme-Text { color:#dfdfdf; } .ColorScheme-Highlight { color:#4285f4; }
  </style>
 </defs>
 <g transform="translate(4,4)">
  <path style="fill:currentColor" class="ColorScheme-Text" d="M 4 2 C 4 2 2 2 2 4 L 2 11 C 2 12 1 12 1 12 L 0 12 L 0 14 L 16 14 L 16 12 L 15 12 C 15 12 14 12 14 11 L 14 4 C 14 4 14 2 12 2 L 4 2 z M 5 5 L 6.4141 5 L 8 6.5859 L 9.5859 5 L 11 5 L 11 6.4141 L 9.4141 8 L 11 9.5859 L 11 11 L 9.5859 11 L 8 9.4141 L 6.4141 11 L 5 11 L 5 9.5859 L 6.5859 8 L 5 6.4141 L 5 5 z"/>
 </g>
</svg>
